Pods/ProtonCore-UIFoundations/libraries/UIFoundations/Sources/Assets.xcassets/Images/IconSet/ic-key-skeleton.imageset/ic-key-skeleton.svg

<svg width="24" height="24" viewBox="0 0 24 24" fill="none" xmlns="http://www.w3.org/2000/svg">
<path fill-rule="evenodd" clip-rule="evenodd" d="M19.4998 6.62151C19.4998 8.62151 17.8784 10.243 15.8779 10.243C13.8775 10.243 12.256 8.62151 12.256 6.62151C12.256 4.62151 13.8775 3 15.8779 3C17.8784 3 19.4998 4.62151 19.4998 6.62151ZM20.9998 6.62151C20.9998 9.45005 18.7067 11.743 15.8779 11.743C14.7367 11.743 13.6826 11.3698 12.8311 10.7387L7.08259 16.5729L9.14312 18.6333C9.43602 18.9262 9.43603 19.401 9.14312 19.6939C8.85022 19.9868 8.37532 19.9868 8.08242 19.6939L6.02582 17.6375L4.49957 19.1636L6.55617 21.22C6.84907 21.5129 6.84907 21.9878 6.55617 22.2807C6.26327 22.5735 5.78837 22.5735 5.49547 22.2807L3.43887 20.2242C2.85306 19.6385 2.85306 18.6887 3.43887 18.103L5.4935 16.0485L11.7689 9.67954C11.1326 8.82614 10.756 7.7678 10.756 6.62151C10.756 3.79298 13.0492 1.5 15.8779 1.5C18.7067 1.5 20.9998 3.79298 20.9998 6.62151Z" fill="#0C0C14"/>
</svg>

<svg xmlns="http://www.w3.org/2000/svg" width="24" height="24" viewBox="0 0 24 24">
  <g class="ic-key-skeleton">
    <path fill-rule="evenodd" d="M19.5 6.622a3.622 3.622 0 1 1-7.243 0 3.622 3.622 0 0 1 7.243 0Zm1.5 0a5.122 5.122 0 0 1-8.168 4.117l-5.749 5.834 2.06 2.06a.75.75 0 1 1-1.06 1.06l-2.057-2.056L4.5 19.165l2.057 2.056a.75.75 0 0 1-1.061 1.06l-2.057-2.056a1.5 1.5 0 0 1 0-2.121l2.055-2.055 6.275-6.368A5.122 5.122 0 1 1 21 6.622Z" class="Icon"/>
  </g>
</svg>
